X:41
T: UNSER HANS HAT HOSEN AN
N: K0299
O: Europa, Mitteleuropa, Deutschland, Boehmen
R: Kinder -, Kose -, Scherz - Lied
M: 2/4
L: 1/16
K: Bb
 | G3DG2A2 | B3AG2
d2 | d3DD3D | G4z4
d4d3d | c4c4
B4B3B | A4A4
B3FB2c2 | d2f2B4
c2e2A2A2 | B2g2f4
B3FB2c2 | d2f2B4
c3eA2A2 | B4z4

